X:2530
T:Morgan Rattler
C:anon.
O:England
S:Josh. Jackson MS
Z:C.G.P
F:http://abc.musicaviva.com/tunes/england/morgan-rattler/morgan-rattler.abc
%Posted at abcusers Jan 2nd 2001 by Johnny Adams.
M:6/8
L:1/8
K:D
AFE EFG|FEF D2B|AFE EFD|B2A Bcd|
AFE EFG|FEF D2d|dcB edc|B2A Bcd:|
|:dcd fed|cAc edc|ded fed|f2e fga|
d2e f2g|agf edc|dcB edc|B2A Bcd:|
|:D2d dcd|E2e ede|D2d dcd|BcA Bcd|
D2d dcd|E2e efg|agf edc|B2A Bcd:|
W:
W:
W:  From Musica Viva - http://www.musicaviva.com
W:  the Internet center for free sheet music downloads.
